assets/icons/CalenarIcon.svg

<svg width="24" height="24" viewBox="0 0 24 24" fill="none" xmlns="http://www.w3.org/2000/svg">
<path d="M12 19C12.1978 19 12.3911 18.9414 12.5556 18.8315C12.72 18.7216 12.8482 18.5654 12.9239 18.3827C12.9996 18.2 13.0194 17.9989 12.9808 17.8049C12.9422 17.6109 12.847 17.4327 12.7071 17.2929C12.5673 17.153 12.3891 17.0578 12.1951 17.0192C12.0011 16.9806 11.8 17.0004 11.6173 17.0761C11.4346 17.1518 11.2784 17.28 11.1685 17.4444C11.0586 17.6089 11 17.8022 11 18C11 18.2652 11.1054 18.5196 11.2929 18.7071C11.4804 18.8946 11.7348 19 12 19ZM17 19C17.1978 19 17.3911 18.9414 17.5556 18.8315C17.72 18.7216 17.8482 18.5654 17.9239 18.3827C17.9996 18.2 18.0194 17.9989 17.9808 17.8049C17.9422 17.6109 17.847 17.4327 17.7071 17.2929C17.5673 17.153 17.3891 17.0578 17.1951 17.0192C17.0011 16.9806 16.8 17.0004 16.6173 17.0761C16.4346 17.1518 16.2784 17.28 16.1685 17.4444C16.0586 17.6089 16 17.8022 16 18C16 18.2652 16.1054 18.5196 16.2929 18.7071C16.4804 18.8946 16.7348 19 17 19ZM17 15C17.1978 15 17.3911 14.9414 17.5556 14.8315C17.72 14.7216 17.8482 14.5654 17.9239 14.3827C17.9996 14.2 18.0194 13.9989 17.9808 13.8049C17.9422 13.6109 17.847 13.4327 17.7071 13.2929C17.5673 13.153 17.3891 13.0578 17.1951 13.0192C17.0011 12.9806 16.8 13.0004 16.6173 13.0761C16.4346 13.1518 16.2784 13.28 16.1685 13.4444C16.0586 13.6089 16 13.8022 16 14C16 14.2652 16.1054 14.5196 16.2929 14.7071C16.4804 14.8946 16.7348 15 17 15ZM12 15C12.1978 15 12.3911 14.9414 12.5556 14.8315C12.72 14.7216 12.8482 14.5654 12.9239 14.3827C12.9996 14.2 13.0194 13.9989 12.9808 13.8049C12.9422 13.6109 12.847 13.4327 12.7071 13.2929C12.5673 13.153 12.3891 13.0578 12.1951 13.0192C12.0011 12.9806 11.8 13.0004 11.6173 13.0761C11.4346 13.1518 11.2784 13.28 11.1685 13.4444C11.0586 13.6089 11 13.8022 11 14C11 14.2652 11.1054 14.5196 11.2929 14.7071C11.4804 14.8946 11.7348 15 12 15ZM19 3H18V2C18 1.73478 17.8946 1.48043 17.7071 1.29289C17.5196 1.10536 17.2652 1 17 1C16.7348 1 16.4804 1.10536 16.2929 1.29289C16.1054 1.48043 16 1.73478 16 2V3H8V2C8 1.73478 7.89464 1.48043 7.70711 1.29289C7.51957 1.10536 7.26522 1 7 1C6.73478 1 6.48043 1.10536 6.29289 1.29289C6.10536 1.48043 6 1.73478 6 2V3H5C4.20435 3 3.44129 3.31607 2.87868 3.87868C2.31607 4.44129 2 5.20435 2 6V20C2 20.7956 2.31607 21.5587 2.87868 22.1213C3.44129 22.6839 4.20435 23 5 23H19C19.7956 23 20.5587 22.6839 21.1213 22.1213C21.6839 21.5587 22 20.7956 22 20V6C22 5.20435 21.6839 4.44129 21.1213 3.87868C20.5587 3.31607 19.7956 3 19 3ZM20 20C20 20.2652 19.8946 20.5196 19.7071 20.7071C19.5196 20.8946 19.2652 21 19 21H5C4.73478 21 4.48043 20.8946 4.29289 20.7071C4.10536 20.5196 4 20.2652 4 20V11H20V20ZM20 9H4V6C4 5.73478 4.10536 5.48043 4.29289 5.29289C4.48043 5.10536 4.73478 5 5 5H6V6C6 6.26522 6.10536 6.51957 6.29289 6.70711C6.48043 6.89464 6.73478 7 7 7C7.26522 7 7.51957 6.89464 7.70711 6.70711C7.89464 6.51957 8 6.26522 8 6V5H16V6C16 6.26522 16.1054 6.51957 16.2929 6.70711C16.4804 6.89464 16.7348 7 17 7C17.2652 7 17.5196 6.89464 17.7071 6.70711C17.8946 6.51957 18 6.26522 18 6V5H19C19.2652 5 19.5196 5.10536 19.7071 5.29289C19.8946 5.48043 20 5.73478 20 6V9ZM7 15C7.19778 15 7.39112 14.9414 7.55557 14.8315C7.72002 14.7216 7.84819 14.5654 7.92388 14.3827C7.99957 14.2 8.01937 13.9989 7.98079 13.8049C7.9422 13.6109 7.84696 13.4327 7.70711 13.2929C7.56725 13.153 7.38907 13.0578 7.19509 13.0192C7.00111 12.9806 6.80004 13.0004 6.61732 13.0761C6.43459 13.1518 6.27841 13.28 6.16853 13.4444C6.05865 13.6089 6 13.8022 6 14C6 14.2652 6.10536 14.5196 6.29289 14.7071C6.48043 14.8946 6.73478 15 7 15ZM7 19C7.19778 19 7.39112 18.9414 7.55557 18.8315C7.72002 18.7216 7.84819 18.5654 7.92388 18.3827C7.99957 18.2 8.01937 17.9989 7.98079 17.8049C7.9422 17.6109 7.84696 17.4327 7.70711 17.2929C7.56725 17.153 7.38907 17.0578 7.19509 17.0192C7.00111 16.9806 6.80004 17.0004 6.61732 17.0761C6.43459 17.1518 6.27841 17.28 6.16853 17.4444C6.05865 17.6089 6 17.8022 6 18C6 18.2652 6.10536 18.5196 6.29289 18.7071C6.48043 18.8946 6.73478 19 7 19Z" fill="#029F59"/>
</svg>

<svg width="24" height="24" fill="none" xmlns="http://www.w3.org/2000/svg">
    <path
        d="M12 19a1 1 0 1 0 0-2 1 1 0 0 0 0 2Zm5 0a1 1 0 1 0 0-2 1 1 0 0 0 0 2Zm0-4a1 1 0 1 0 0-2 1 1 0 0 0 0 2Zm-5 0a1 1 0 1 0 0-2 1 1 0 0 0 0 2Zm7-12h-1V2a1 1 0 0 0-2 0v1H8V2a1 1 0 0 0-2 0v1H5a3 3 0 0 0-3 3v14a3 3 0 0 0 3 3h14a3 3 0 0 0 3-3V6a3 3 0 0 0-3-3Zm1 17a1 1 0 0 1-1 1H5a1 1 0 0 1-1-1v-9h16v9Zm0-11H4V6a1 1 0 0 1 1-1h1v1a1 1 0 0 0 2 0V5h8v1a1 1 0 0 0 2 0V5h1a1 1 0 0 1 1 1v3ZM7 15a1 1 0 1 0 0-2 1 1 0 0 0 0 2Zm0 4a1 1 0 1 0 0-2 1 1 0 0 0 0 2Z"
        fill="#029F59" />
</svg>
